svgs/sharp-solid/battery-empty.svg

<svg xmlns="http://www.w3.org/2000/svg" viewBox="0 0 576 512"><!--! Font Awesome Pro 6.6.0 by @fontawesome - https://fontawesome.com License - https://fontawesome.com/license (Commercial License) Copyright 2024 Fonticons, Inc. --><path d="M64 160l0 192 416 0 0-192L64 160zM0 96l64 0 416 0 64 0 0 64 0 32 32 0 0 128-32 0 0 32 0 64-64 0L64 416 0 416l0-64L0 160 0 96z"/></svg>

<svg xmlns="http://www.w3.org/2000/svg" viewBox="0 0 576 512"><!--! Font Awesome Pro 6.5.2 by @fontawesome - https://fontawesome.com License - https://fontawesome.com/license (Commercial License) Copyright 2024 Fonticons, Inc. --><path d="M64 160V352H480V160H64zM0 96H64 480h64v64 32h32V320H544v32 64H480 64 0V352 160 96z"/></svg>
